!! 00000] TT[WS
!!!OTL: Fang Fengzheng
!!!ARE: Asia, China,ÿShanxi Jingnan
!! Ethnic Group: Han
!! WI, 216 (2)
!!!SCT: J0257
!!!YEM: Copyright 1995, estate of Helmut Schaffrath.
**kern
*ICvox
*Ivox
*M2/4
*k[f#]
*G:
{4dd
8gg
8ee
=1
4dd
8b
8a
=2
4dd
8gg
8ee
=3
8dd
8gg
8b
8a
=4
4.g
8e
=5
8dd
8ee
8dd
8dd
=6
8e
8g
8b
8a
=7
2g}
=8
{8g
8a
4dd
=9
8ee
8dd
8b
8a
=10
8g
8a
8dd
8b
=11
8a
8g
4d
=12
8g
8e
8d
8d
=13
4dd
8dd
8g
=14
8a
8b
8a
8e
=15
2d}
==
!!!AGN: Xiaodiao. Qingge, Sichun
!!!ONB: ESAC (Essen Associative Code) Database: CHINA
!!!AMT: simple duple
!!!AIN: vox
!!!EED: Helmut Schaffrath
!!!EEV: 1.0
*-
